!!!COM: Josquin Desprez
!!!CDT: ~1440///-1521/08/27/
!!!OTL: Tulerunt Dominum meum
**kern	**kern	**kern	**kern	**kern	**kern	**kern	**kern
*staff8	*staff7	*staff6	*staff5	*staff4	*staff3	*staff2	*staff1
*Ivox	*Ivox	*Ivox	*Ivox	*Ivox	*Ivox	*Ivox	*Ivox
*clefF4	*clefF4	*clefG2	*clefG2	*clefG2	*clefG2	*clefG2	*clefG2
*k[b-]	*k[b-]	*k[b-]	*k[b-]	*k[b-]	*k[b-]	*k[b-]	*k[b-]
*M2/2	*M2/2	*M2/2	*M2/2	*M2/2	*M2/2	*M2/2	*M2/2
*MM200	*MM200	*MM200	*MM200	*MM200	*MM200	*MM200	*MM200
=1-	=1-	=1-	=1-	=1-	=1-	=1-	=1-
1r	1r	1r	1r	1r	1r	1g	1r
=2	=2	=2	=2	=2	=2	=2	=2
1r	1r	1r	1r	1r	1r	2cc\	1r
.	.	.	.	.	.	2cc\	.
=3	=3	=3	=3	=3	=3	=3	=3
1r	1r	1r	1g	1r	1r	2.b-\	1r
.	.	.	.	.	.	4a/	.
=4	=4	=4	=4	=4	=4	=4	=4
1r	1r	1r	2cc\	1r	1r	4g/	1r
.	.	.	.	.	.	4f/	.
.	.	.	2cc\	.	.	2e/	.
=5	=5	=5	=5	=5	=5	=5	=5
1r	1r	1r	2.b-\	1r	1dd	2d/	1r
.	.	.	.	.	.	2f/	.
.	.	.	4a/	.	.	.	.
=6	=6	=6	=6	=6	=6	=6	=6
1r	1r	1r	4g/	1r	2gg\	4e/	1r
.	.	.	4f/	.	.	2d/	.
.	.	.	2e/	.	2gg\	.	.
.	.	.	.	.	.	4c/	.
=7	=7	=7	=7	=7	=7	=7	=7
1r	1D	1r	4d/	1r	2.ff\	1d	1r
.	.	.	2dd\	.	.	.	.
.	.	.	4cc\	.	4ee\	.	.
=8	=8	=8	=8	=8	=8	=8	=8
1r	2G\	1g	4b-\	1r	4dd\	1r	1r
.	.	.	4a/	.	4cc\	.	.
.	2G\	.	2g/	.	2b-\	.	.
=9	=9	=9	=9	=9	=9	=9	=9
1r	2.F\	4.cc\	1a	1r	2a/	1r	1a
.	.	8b-\	.	.	.	.	.
.	.	4a/	.	.	2cc\	.	.
.	4E\	4g/	.	.	.	.	.
=10	=10	=10	=10	=10	=10	=10	=10
1r	4D\	4f/	1r	1r	4b-\	1r	2dd\
.	4C/	4e/	.	.	2a/	.	.
.	2BB-/	2d/	.	.	.	.	2dd\
.	.	.	.	.	4g/	.	.
=11	=11	=11	=11	=11	=11	=11	=11
1r	1AA	4e/	1r	1a	1a	1r	2.cc\
.	.	2a/	.	.	.	.	.
.	.	4g/	.	.	.	.	4b-\
=12	=12	=12	=12	=12	=12	=12	=12
1r	1r	4f/	1r	2dd\	1r	1r	4a/
.	.	4e/	.	.	.	.	4g/
.	.	2d/	.	2dd\	.	.	2f/
=13	=13	=13	=13	=13	=13	=13	=13
1AA	1r	2a/	1r	2.cc\	1r	1r	4e/
.	.	.	.	.	.	.	2a/
.	.	2r	.	.	.	.	.
.	.	.	.	4b-\	.	.	4g/
=14	=14	=14	=14	=14	=14	=14	=14
2D\	1r	2a/	1r	4a/	1r	1r	4f/
.	.	.	.	4g/	.	.	4e/
2D\	.	4a/	.	2f/	.	.	2d/
.	.	4a/	.	.	.	.	.
=15	=15	=15	=15	=15	=15	=15	=15
2.C/	1r	2cc\	1e	2g/	1r	1r	1e
.	.	4c/	.	4r	.	.	.
4BB-/	.	4d/	.	4g/	.	.	.
=16	=16	=16	=16	=16	=16	=16	=16
4AA/	1r	2e/	2a/	2cc\	1a	1r	1r
4GG/	.	.	.	.	.	.	.
2FF/	.	2f/	2a/	2cc\	.	.	.
=17	=17	=17	=17	=17	=17	=17	=17
1r	1GG	1d	4.g/	2b-\	2dd\	1g	1r
.	.	.	8f/	.	.	.	.
.	.	.	4d/	2b-\	2dd\	.	.
.	.	.	[4g/	.	.	.	.
=18	=18	=18	=18	=18	=18	=18	=18
1r	2AA/	1r	4g/]	2a/	2.cc\	2cc\	1r
.	.	.	8f/L	.	.	.	.
.	.	.	8e/J	.	.	.	.
.	2AA/	.	2f/	4r	.	2cc\	.
.	.	.	.	4a/	4a/	.	.
=19	=19	=19	=19	=19	=19	=19	=19
1GG	4GG/	1r	1g	2dd\	2b-\	2b-\	1g
.	4G\	.	.	.	.	.	.
.	4GG/	.	.	2dd\	2g/	2b-\	.
.	[4G\	.	.	.	.	.	.
=20	=20	=20	=20	=20	=20	=20	=20
2AA/	4G\]	1r	1r	2.cc\	2r	4.a/	2cc\
.	8F\L	.	.	.	.	.	.
.	8E\J	.	.	.	.	8g/	.
2AA/	2F\	.	.	.	2a/	2a/	2cc\
.	.	.	.	4a/	.	.	.
=21	=21	=21	=21	=21	=21	=21	=21
4GG/	2G\	1g	1r	2b-\	2dd\	1r	2b-\
4G\	.	.	.	.	.	.	.
4GG/	2r	.	.	2g/	2dd\	.	2b-\
[4G\	.	.	.	.	.	.	.
=22	=22	=22	=22	=22	=22	=22	=22
4G\]	1r	2cc\	1r	2r	2cc\	4r	4.a/
8F\L	.	.	.	.	.	2cc\	.
8E\J	.	.	.	.	.	.	8g/
2F\	.	2cc\	.	2a/	2r	.	2a/
.	.	.	.	.	.	4a/	.
=23	=23	=23	=23	=23	=23	=23	=23
2G\	2GG/	4.b-\	2d/	2.dd\	1r	2.b-\	2g/
.	.	16a/LL	.	.	.	.	.
.	.	16g/JJ	.	.	.	.	.
2r	4.BB-/	4f/	4.d/	.	.	.	2r
.	.	4b-\	.	4dd\	.	8a/L	.
.	8C/	.	8e/	.	.	8g/J	.
=24	=24	=24	=24	=24	=24	=24	=24
1r	4D\	4a/	4f/	4dd\	2r	4f/	2r
.	4BB-/	4g/	4d/	4dd\	.	2g/	.
.	4C/	2a/	4e/	4cc\	4r	.	2a/
.	4D\	.	4f/	4a/	4dd\	4f/	.
=25	=25	=25	=25	=25	=25	=25	=25
2GG/	2GG/	4g/	4d/	1dd	4.b-\	2g/	2.b-\
.	.	4d/	4g/	.	.	.	.
.	.	.	.	.	8cc\	.	.
4.BB-/	2r	4.d/	4f/	.	2dd\	2r	.
.	.	.	4b-\	.	.	.	8a/L
8C/	.	8e/	.	.	.	.	8g/J
=26	=26	=26	=26	=26	=26	=26	=26
4D\	1r	4f/	4a/	1r	4dd\	2r	4f/
4BB-/	.	4d/	4g/	.	4dd\	.	2g/
4C/	.	4e/	2a/	.	4cc\	2a/	.
4D\	.	4f/	.	.	4a/	.	4f/
=27	=27	=27	=27	=27	=27	=27	=27
2GG/	2GG/	2d/	2g/	2b-\	2dd\	2b-\	4g/
.	.	.	.	.	.	.	4g/
4r	2G\	2r	2r	2b-\	2dd\	4r	2b-\
4GG/	.	.	.	.	.	4g/	.
=28	=28	=28	=28	=28	=28	=28	=28
2G\	4r	2b-\	2dd\	1r	1r	2b-\	4r
.	4GG/	.	.	.	.	.	4g/
4r	2G\	2b-\	2dd\	.	.	4r	2b-\
4GG/	.	.	.	.	.	4g/	.
=29	=29	=29	=29	=29	=29	=29	=29
2G\	4r	4r	4r	2b-\	2dd\	4.b-\	1r
.	4GG/	4g/	4dd\	.	.	.	.
.	.	.	.	.	.	8a/	.
2r	2G\	4b-\	4dd\	2b-\	2dd\	4g/	.
.	.	4g/	4b-\	.	.	4b-\	.
=30	=30	=30	=30	=30	=30	=30	=30
1r	4F\	4a/	4cc\	1r	1r	4a/	1r
.	4D\	4b-\	2dd\	.	.	4f/	.
.	4E\	4g/	.	.	.	4g/	.
.	4E\	4g/	4cc\	.	.	4g/	.
=31	=31	=31	=31	=31	=31	=31	=31
2D\	2D\	2a/	2dd\	2dd\	2r	2f/	2a/
2D\	2r	2r	2r	2ff\	2dd\	2r	2a/
=32	=32	=32	=32	=32	=32	=32	=32
1r	2D\	2f/	2a/	4r	2ff\	2a/	1r
.	.	.	.	4dd\	.	.	.
.	2D\	2f/	2a/	2ff\	4r	2a/	.
.	.	.	.	.	4dd\	.	.
=33	=33	=33	=33	=33	=33	=33	=33
2.D\	1r	4r	4r	1r	4.ff\	1r	2a/
.	.	4d/	4a/	.	.	.	.
.	.	.	.	.	8ee\	.	.
.	.	4f/	4a/	.	4dd\	.	2a/
4D\	.	4d/	4f/	.	4ff\	.	.
=34	=34	=34	=34	=34	=34	=34	=34
4C/	1r	4e/	4g/	1r	4ee\	2r	1r
8BB-/L	.	4f/	2a/	.	4cc\	.	.
8AA/J	.	.	.	.	.	.	.
4BB-/	.	4d/	.	.	4dd\	2b-\	.
4BB-/	.	4d/	4g/	.	4dd\	.	.
=35	=35	=35	=35	=35	=35	=35	=35
2AA/	1AA	1e	1a	1ee	1cc	2.cc\	1r
2r	.	.	.	.	.	.	.
.	.	.	.	.	.	4a/	.
=36	=36	=36	=36	=36	=36	=36	=36
1r	1D	1r	2f/	1ff	2dd\	1a	2r
.	.	.	2d/	.	2dd\	.	2a/
=37	=37	=37	=37	=37	=37	=37	=37
1AA	2AA/	1a	1e	2ee\	2cc\	1r	2.cc\
.	2r	.	.	2cc\	2ee\	.	.
.	.	.	.	.	.	.	4a/
=38	=38	=38	=38	=38	=38	=38	=38
1D	1r	2f/	1r	1dd	1ff	2r	2a/
.	.	2d/	.	.	.	2a/	2r
=39	=39	=39	=39	=39	=39	=39	=39
1AA	1r	1e	2a/	1cc	4ee\	4.cc\	2e/
.	.	.	.	.	8cc\L	.	.
.	.	.	.	.	8dd\	8b-\	.
.	.	.	4a/	.	8ee\	4a/	4e/
.	.	.	.	.	8ff\J	.	.
.	.	.	4a/	.	[4ee\	4cc\	4e/
=40	=40	=40	=40	=40	=40	=40	=40
1r	1r	1r	4g/	1r	8ee\]	4b-\	4g/
.	.	.	.	.	8dd\	.	.
.	.	.	4b-\	.	2dd\	4g/	4d/
.	.	.	2a/	.	.	2a/	4f/
.	.	.	.	.	4cc\	.	4e/
=41	=41	=41	=41	=41	=41	=41	=41
1D	2r	1a	2d/	2r	1dd	1f	2d/
.	2D\	.	2r	2dd\	.	.	2r
=42	=42	=42	=42	=42	=42	=42	=42
2GG/	2G\	1b-	1r	1dd	1r	1r	1r
2GG/	2G\	.	.	.	.	.	.
=43	=43	=43	=43	=43	=43	=43	=43
1D	4.F\	2a/	1a	1dd	2r	1a	1f
.	8E\	.	.	.	.	.	.
.	2D\	2r	.	.	2dd\	.	.
=44	=44	=44	=44	=44	=44	=44	=44
1r	1GG	1r	2g/	1r	1dd	2b-\	2g/
.	.	.	2g/	.	.	2b-\	2g/
=45	=45	=45	=45	=45	=45	=45	=45
2r	1D	2r	2a/	2r	2dd\	4a/	1f
.	.	.	.	.	.	8f/L	.
.	.	.	.	.	.	8g/	.
2D\	.	2a/	2r	2dd\	2r	8a/	.
.	.	.	.	.	.	8b-/J	.
.	.	.	.	.	.	[4a/	.
=46	=46	=46	=46	=46	=46	=46	=46
4C/	2r	4cc\	2r	4ee\	2r	8a/]	4.g/
.	.	.	.	.	.	8g/	.
4E\	.	4g/	.	4cc\	.	2g/	.
.	.	.	.	.	.	.	16f/LL
.	.	.	.	.	.	.	16e/JJ
2D\	2D\	2a/	2a/	2dd\	2dd\	.	8f/L
.	.	.	.	.	.	.	8g/J
.	.	.	.	.	.	4f/	[4a/
=47	=47	=47	=47	=47	=47	=47	=47
2r	4C/	2r	4cc\	2r	4ee\	4g/	8a/]
.	.	.	.	.	.	.	8g/
.	4E\	.	4g/	.	4cc\	4e/	2g/
4r	2D\	4r	2a/	4r	2dd\	8f/L	.
.	.	.	.	.	.	8g/J	.
4D\	.	4a/	.	4dd\	.	[4b-/	4f/
=48	=48	=48	=48	=48	=48	=48	=48
4C/	2r	4cc\	2r	4ee\	2r	8b-\]	4g/
.	.	.	.	.	.	8g/	.
4E\	.	4g/	.	4cc\	.	2g/	4e/
2D\	4r	2a/	4r	2dd\	4r	.	8f/L
.	.	.	.	.	.	.	8g/J
.	4D\	.	4a/	.	4dd\	4f/	[4a/
=49	=49	=49	=49	=49	=49	=49	=49
2r	4C/	2r	4cc\	2r	4ee\	4g/	8a/]
.	.	.	.	.	.	.	8g/
.	4E\	.	4g/	.	4cc\	4e/	2g/
4r	4D\	4r	2a/	4r	2dd\	8f/L	.
.	.	.	.	.	.	8g/J	.
4D\	4F\	4a/	.	4dd\	.	[4a/	4f/
=50	=50	=50	=50	=50	=50	=50	=50
4C/	2E\	4cc\	1r	4ee\	1r	8a/L]	2g/
.	.	.	.	.	.	8g/J	.
4E\	.	4g/	.	4cc\	.	2g/	.
2D\	2F\	2a/	.	2dd\	.	.	2r
.	.	.	.	.	.	4f/	.
=51	=51	=51	=51	=51	=51	=51	=51
1GG	1D	2g/	2g/	1b-	2dd\	1g	2b-\
.	.	2r	4g/	.	4dd\	.	4b-\
.	.	.	4g/	.	4dd\	.	4b-\
=52	=52	=52	=52	=52	=52	=52	=52
1r	1r	1r	4.d/	1r	4.ff\	1r	2.a/
.	.	.	8e/	.	8ee\L	.	.
.	.	.	4f/	.	8dd\	.	.
.	.	.	.	.	8cc\J	.	.
.	.	.	4g/	.	[4ee\	.	4g/
=53	=53	=53	=53	=53	=53	=53	=53
1r	1r	1r	4a/	1r	8ee\]	1r	2f/
.	.	.	.	.	8dd\	.	.
.	.	.	4b-\	.	2dd\	.	.
.	.	.	4g/	.	.	.	2e/
.	.	.	4a/	.	4cc\	.	.
=54	=54	=54	=54	=54	=54	=54	=54
2GG/	2G\	2b-\	1d	2dd\	1dd	1r	1d
4GG/	4G\	4b-\	.	4dd\	.	.	.
4GG/	4G\	4b-\	.	4dd\	.	.	.
=55	=55	=55	=55	=55	=55	=55	=55
4.D\	4.F\	4a/	1r	2ff\	1r	1r	1r
.	.	2dd\	.	.	.	.	.
8E\	8G\	.	.	.	.	.	.
4F\	4A\	.	.	4ff\	.	.	.
4C/	4G\	8cc\L	.	[4ee\	.	.	.
.	.	8b-\J	.	.	.	.	.
=56	=56	=56	=56	=56	=56	=56	=56
4D\	4F\	4a/	1r	8ee\L]	1r	1r	1r
.	.	.	.	8dd\J	.	.	.
4GG/	4G\	4b-\	.	2dd\	.	.	.
2AA/	2E\	2a/	.	.	.	.	.
.	.	.	.	4cc\	.	.	.
=57	=57	=57	=57	=57	=57	=57	=57
1r	1D	1f	2d/	1dd	2ff\	2a/	1r
.	.	.	4f/	.	4ff\	4a/	.
.	.	.	4f/	.	4ff\	4a/	.
=58	=58	=58	=58	=58	=58	=58	=58
1r	1r	1r	2.c/	1r	2.ee\	4.cc\	2g/
.	.	.	.	.	.	8b-\	.
.	.	.	.	.	.	4cc\	4g/
.	.	.	4g/	.	4dd\	[4b-\	4g/
=59	=59	=59	=59	=59	=59	=59	=59
1r	1r	1r	4a/	1r	2cc\	8b-\]	4e/
.	.	.	.	.	.	8a/	.
.	.	.	4f/	.	.	2a/	4f/
.	.	.	2g/	.	2b-\	.	4.d/
.	.	.	.	.	.	4g/	.
.	.	.	.	.	.	.	8e/
=60	=60	=60	=60	=60	=60	=60	=60
1D	1r	1a	2d/	1dd	1a	1a	2f/
.	.	.	2r	.	.	.	2f/
=61	=61	=61	=61	=61	=61	=61	=61
2E-\	1r	2g/	1r	2b-\	1r	1r	2g/
2E-\	.	2g/	.	2cc\	.	.	2g/
=62	=62	=62	=62	=62	=62	=62	=62
2D\	1D	2a/	2a/	2dd\	1dd	2r	2f/
2r	.	2r	2a/	2r	.	4f/	2r
.	.	.	.	.	.	4f/	.
=63	=63	=63	=63	=63	=63	=63	=63
1r	2E-\	1r	2g/	1r	2b-\	2g/	1r
.	2E-\	.	2g/	.	2cc\	2g/	.
=64	=64	=64	=64	=64	=64	=64	=64
1D	2D\	1a	1a	1dd	2dd\	2f/	2f/
.	2r	.	.	.	2r	2r	2f/
=65	=65	=65	=65	=65	=65	=65	=65
2E\	2r	2g/	1r	2b-\	1r	1r	2g/
2E\	2C/	2g/	.	2cc\	.	.	2g/
=66	=66	=66	=66	=66	=66	=66	=66
1D	4.F\	4a/	1r	1dd	1a	2a/	1f
.	.	8d/L	.	.	.	.	.
.	8E\	8e/	.	.	.	.	.
.	4D\	8f/	.	.	.	4a/	.
.	.	8g/J	.	.	.	.	.
.	4F\	[4a/	.	.	.	4f/	.
=67	=67	=67	=67	=67	=67	=67	=67
4.C/	2E\	8a/]	1r	1r	2cc\	2g/	1r
.	.	8g/	.	.	.	.	.
.	.	2g/	.	.	.	.	.
8BB-/	.	.	.	.	.	.	.
4AA/	2C/	.	.	.	2cc\	2a/	.
4AA/	.	4f/	.	.	.	.	.
=68	=68	=68	=68	=68	=68	=68	=68
2GG/	4D\	2g/	4r	2dd\	2g/	4.b-\	1r
.	4D\	.	4b-\	.	.	.	.
.	.	.	.	.	.	8a/	.
2r	4F\	2r	4a/	4cc\	2r	4f/	.
.	4E\	.	4g/	4cc\	.	4g/	.
=69	=69	=69	=69	=69	=69	=69	=69
4r	2D\	4.f/	2a/	2dd\	4r	2f/	2a/
4D\	.	.	.	.	4dd\	.	.
.	.	8g/	.	.	.	.	.
4F\	2r	4a/	2r	2r	4cc\	2r	4f/
4E\	.	4g/	.	.	4cc\	.	4g/
=70	=70	=70	=70	=70	=70	=70	=70
2D\	4r	2a/	4r	2dd\	2dd\	4r	2f/
.	4D\	.	4f/	.	.	4a/	.
2r	4F\	2r	4a/	4cc\	2r	4f/	2r
.	4E\	.	4g/	4cc\	.	4g/	.
=71	=71	=71	=71	=71	=71	=71	=71
2r	1D	2r	2a/	1dd	2r	1r	2r
2D\	.	2f/	2a/	.	4r	.	2a/
.	.	.	.	.	4dd\	.	.
=72	=72	=72	=72	=72	=72	=72	=72
4GG/	2r	4g/	2r	2r	4dd\	2r	4b-\
4GG/	.	4b-\	.	.	4dd\	.	2g/
4C/	4r	2a/	4r	4r	4ee\	4r	.
4D\	[4D\	.	4d/	4dd\	8dd\L	4a/	4f/
.	.	.	.	.	8cc\J	.	.
=73	=73	=73	=73	=73	=73	=73	=73
2GG/	4D\]	2g/	4g/	4dd\	2b-\	4b-\	2g/
.	4BB-/	.	4b-\	4dd\	.	2g/	.
4r	4C/	4r	2a/	4ee\	4r	.	4r
[4D\	4D\	4d/	.	8dd\L	4dd\	4f/	4a/
.	.	.	.	8cc\J	.	.	.
=74	=74	=74	=74	=74	=74	=74	=74
4D\]	2GG/	4g/	2g/	2b-\	4dd\	2g/	4b-\
4BB-/	.	4b-\	.	.	4dd\	.	2g/
4C/	4r	2a/	4r	4r	4ee\	4r	.
4D\	[4D\	.	4d/	4dd\	8dd\L	4a/	4f/
.	.	.	.	.	8cc\J	.	.
=75	=75	=75	=75	=75	=75	=75	=75
2GG/	4D\]	2g/	4g/	4dd\	2b-\	4b-\	2g/
.	4BB-/	.	4b-\	4dd\	.	2g/	.
4r	4C/	2r	2a/	4ee\	2r	.	4r
4D\	4D\	.	.	8dd\L	.	4f/	4a/
.	.	.	.	8cc\J	.	.	.
=76	=76	=76	=76	=76	=76	=76	=76
4D\	4GG/	1r	1g	4b-\	2r	2g/	4b-\
4E\	4C/	.	.	2cc\	.	.	4g/
2D\	2GG/	.	.	.	4r	2r	2g/
.	.	.	.	4b-\	4g/	.	.
=77	=77	=77	=77	=77	=77	=77	=77
2C/	4C/	1r	1r	2cc\	4g/	1g	4.e/
.	4E\	.	.	.	4g/	.	.
.	.	.	.	.	.	.	8f/
4BB-/	4D\	.	.	2r	4b-\	.	2g/
[4C/	[4E\	.	.	.	8a/L	.	.
.	.	.	.	.	8g/J	.	.
=78	=78	=78	=78	=78	=78	=78	=78
4C/]	4E\]	2r	1r	1r	4a/	2cc\	1r
4BB-/	4D\	.	.	.	2g/	.	.
2AA/	2C/	2a/	.	.	.	2cc\	.
.	.	.	.	.	4f/	.	.
=79	=79	=79	=79	=79	=79	=79	=79
1GG	1D	4.b-\	1g	1r	2g/	2.b-\	1r
.	.	8a/	.	.	.	.	.
.	.	4g/	.	.	2r	.	.
.	.	4f/	.	.	.	4a/	.
=80	=80	=80	=80	=80	=80	=80	=80
1r	1r	4e/	2cc\	1r	1r	4g/	1r
.	.	4d/	.	.	.	4f/	.
.	.	2c/	2cc\	.	.	2e/	.
=81	=81	=81	=81	=81	=81	=81	=81
1r	1r	4g/	2.b-\	1r	1dd	2d/	1r
.	.	2dd\	.	.	.	.	.
.	.	.	.	.	.	2f/	.
.	.	4cc\	4a/	.	.	.	.
=82	=82	=82	=82	=82	=82	=82	=82
1r	1r	4b-\	4g/	1r	2gg\	4e/	1r
.	.	4a/	4f/	.	.	2d/	.
.	.	4g/	2e/	.	2gg\	.	.
.	.	4g/	.	.	.	4c/	.
=83	=83	=83	=83	=83	=83	=83	=83
1r	1D	2a/	4d/	1r	2.ff\	[1d	1r
.	.	.	2dd\	.	.	.	.
.	.	2r	.	.	.	.	.
.	.	.	4cc\	.	4ee\	.	.
=84	=84	=84	=84	=84	=84	=84	=84
1r	2G\	1g	4b-\	1r	4dd\	1d]	1r
.	.	.	4a/	.	4cc\	.	.
.	2G\	.	2g/	.	2b-\	.	.
=85	=85	=85	=85	=85	=85	=85	=85
1r	2.F\	4.cc\	1a	1r	2a/	1r	1a
.	.	8b-\	.	.	.	.	.
.	.	4a/	.	.	2cc\	.	.
.	4E\	4g/	.	.	.	.	.
=86	=86	=86	=86	=86	=86	=86	=86
1r	4D\	4f/	1r	1r	4b-\	1r	2dd\
.	4C/	4e/	.	.	2a/	.	.
.	2BB-/	2d/	.	.	.	.	2dd\
.	.	.	.	.	4g/	.	.
=87	=87	=87	=87	=87	=87	=87	=87
1r	1AA	4e/	1r	1a	1a	1r	2.cc\
.	.	2a/	.	.	.	.	.
.	.	4g/	.	.	.	.	4b-\
=88	=88	=88	=88	=88	=88	=88	=88
1r	1r	4f/	1r	2dd\	1r	1r	4a/
.	.	4e/	.	.	.	.	4g/
.	.	2d/	.	2dd\	.	.	4f/
.	.	.	.	.	.	.	4f/
=89	=89	=89	=89	=89	=89	=89	=89
1AA	1r	2a/	1r	2.cc\	1r	1r	4e/
.	.	.	.	.	.	.	2a/
.	.	2r	.	.	.	.	.
.	.	.	.	4b-\	.	.	4g/
=90	=90	=90	=90	=90	=90	=90	=90
2D\	1r	2a/	1r	4a/	1r	1r	4f/
.	.	.	.	4g/	.	.	4e/
2D\	.	4a/	.	2f/	.	.	2d/
.	.	4a/	.	.	.	.	.
=91	=91	=91	=91	=91	=91	=91	=91
2.C/	1r	2cc\	1e	2g/	1r	1r	1e
.	.	4c/	.	4r	.	.	.
4BB-/	.	4d/	.	4g/	.	.	.
=92	=92	=92	=92	=92	=92	=92	=92
4AA/	1r	2e/	2a/	2cc\	1a	1r	1r
4GG/	.	.	.	.	.	.	.
2FF/	.	2f/	2a/	2cc\	.	.	.
=93	=93	=93	=93	=93	=93	=93	=93
1r	1GG	1d	4.g/	2b-\	2dd\	1g	1r
.	.	.	8e/	.	.	.	.
.	.	.	4d/	2b-\	2dd\	.	.
.	.	.	[4g/	.	.	.	.
=94	=94	=94	=94	=94	=94	=94	=94
1r	2AA/	1r	4g/]	4.a/	2.cc\	2cc\	1r
.	.	.	8f/L	.	.	.	.
.	.	.	8e/J	8g/	.	.	.
.	2AA/	.	2f/	4a/	.	2cc\	.
.	.	.	.	4a/	4a/	.	.
=95	=95	=95	=95	=95	=95	=95	=95
1GG	4GG/	1r	1g	2dd\	4b-\	2b-\	1g
.	4G\	.	.	.	4b-\	.	.
.	4GG/	.	.	2dd\	2g/	2b-\	.
.	[4G\	.	.	.	.	.	.
=96	=96	=96	=96	=96	=96	=96	=96
2AA/	4G\]	1r	1r	2.cc\	2r	4.a/	2cc\
.	8F\L	.	.	.	.	.	.
.	8E\J	.	.	.	.	8g/	.
2AA/	2F\	.	.	.	2a/	2a/	2cc\
.	.	.	.	4a/	.	.	.
=97	=97	=97	=97	=97	=97	=97	=97
4GG/	2G\	1g	1r	4b-\	2dd\	1r	2b-\
4G\	.	.	.	4b-\	.	.	.
4GG/	2r	.	.	2g/	2dd\	.	2b-\
[4G\	.	.	.	.	.	.	.
=98	=98	=98	=98	=98	=98	=98	=98
4G\]	1r	2cc\	1r	2r	2cc\	4r	4.a/
8F\L	.	.	.	.	.	2cc\	.
8E\J	.	.	.	.	.	.	8g/
2F\	.	2cc\	.	2a/	2r	.	2a/
.	.	.	.	.	.	4a/	.
=99	=99	=99	=99	=99	=99	=99	=99
2G\	2GG/	4.b-\	2d/	2.dd\	1r	2.b-\	2g/
.	.	16a/LL	.	.	.	.	.
.	.	16g/JJ	.	.	.	.	.
2r	4.BB-/	4f/	4.d/	.	.	.	2r
.	.	4b-\	.	4cc\	.	8a/L	.
.	8C/	.	8e/	.	.	8g/J	.
=100	=100	=100	=100	=100	=100	=100	=100
1r	4D\	4a/	4f/	4dd\	2r	4f/	2r
.	4BB-/	4g/	4d/	4dd\	.	2g/	.
.	4C/	2a/	4e/	4cc\	4r	.	2a/
.	4D\	.	4f/	4a/	4dd\	4f/	.
=101	=101	=101	=101	=101	=101	=101	=101
2GG/	2GG/	4g/	4d/	1dd	4.b-\	2g/	2.b-\
.	.	4d/	4g/	.	.	.	.
.	.	.	.	.	8cc\	.	.
4.BB-/	2r	4.d/	4f/	.	2dd\	2r	.
.	.	.	4b-\	.	.	.	8a/L
8C/	.	8e/	.	.	.	.	8g/J
=102	=102	=102	=102	=102	=102	=102	=102
4D\	1r	4f/	4a/	1r	4r	2r	4f/
4BB-/	.	4d/	4g/	.	4dd\	.	2g/
4C/	.	4e/	4a/	.	4cc\	2a/	.
4D\	.	4f/	4a/	.	4a/	.	4f/
=103	=103	=103	=103	=103	=103	=103	=103
4GG/	1r	4d/	1g	2b-\	4dd\	4b-\	2g/
4GG/	.	4g/	.	.	4dd\	4b-\	.
4C/	.	4e/	.	4cc\	4ee\	2g/	4r
4C/	.	4c/	.	4cc\	4ee\	.	4g/
=104	=104	=104	=104	=104	=104	=104	=104
2GG/	2GG/	2d/	4r	4b-\	4dd\	2r	4b-\
.	.	.	4g/	4dd\	4b-\	.	4b-\
2r	4C/	2r	4e/	4ee\	4cc\	4r	2g/
.	4C/	.	4c/	4ee\	4cc\	4g/	.
=105	=105	=105	=105	=105	=105	=105	=105
4r	2GG/	2g/	2d/	4dd\	4b-\	4b-\	2r
4GG/	.	.	.	4b-\	4dd\	4b-\	.
4C/	2r	4e/	2r	4cc\	4ee\	2g/	4r
4C/	.	4c/	.	4cc\	4ee\	.	4g/
=106	=106	=106	=106	=106	=106	=106	=106
2GG/	2GG/	2d/	2g/	4b-\	4dd\	2r	4b-\
.	.	.	.	4dd\	4b-\	.	4b-\
2r	4C/	2r	4e/	4ee\	4cc\	4r	2g/
.	4C/	.	4c/	4ee\	4cc\	4g/	.
=107	=107	=107	=107	=107	=107	=107	=107
2GG/	2GG/	2g/	2d/	4dd\	4b-\	4b-\	2r
.	.	.	.	4b-\	4dd\	4b-\	.
4C/	2r	4e/	2r	4cc\	4ee\	2g/	4r
4C/	.	4c/	.	4cc\	4ee\	.	4g/
=108	=108	=108	=108	=108	=108	=108	=108
[1GG	2.D\	[1d	2.g/	[1b-	[1dd	4r	4b-\
.	.	.	.	.	.	4g/	4b-\
.	.	.	.	.	.	4b-\	4.g/
.	4D\	.	4g/	.	.	4b-\	.
.	.	.	.	.	.	.	8a/
=109	=109	=109	=109	=109	=109	=109	=109
1GG;]	1D;	1d;]	1g;	1b-;]	1dd;]	1g;	1b-;
==	==	==	==	==	==	==	==
*-	*-	*-	*-	*-	*-	*-	*-
!!!ENC: Craig Stuart Sapp
!!!END: 2004/11/28/
